symbols/default/47.svg

<svg xmlns="http://www.w3.org/2000/svg" fill="none" viewBox="0 0 100 100">
  <g clip-path="url(#a)">
    <path fill="#CCC" fill-rule="evenodd" d="M81.3 42.9C79.4 31.6 69.4 23 57.7 23c-9.1 0-17.3 5.1-21.3 13.1-1.2-.5-2.4-.7-3.6-.7-4.2 0-7.8 2.5-9.2 6.2-.6-.1-1.1-.1-1.7-.1-4.1 0-7.9 1.6-10.7 4.5C8.5 48.8 7 52.4 7 56.2v.2c.1 4.1 1.7 7.8 4.6 10.5 2.7 2.7 6.4 4.2 10.3 4.2h55.7c7.9 0 14.4-6.4 14.4-14.3 0-6.6-4.5-12.3-10.7-13.9Z" clip-rule="evenodd"/>
    <path fill="url(#b)" fill-rule="evenodd" d="M81.3 42.9C79.4 31.6 69.4 23 57.7 23c-9.1 0-17.3 5.1-21.3 13.1-1.2-.5-2.4-.7-3.6-.7-4.2 0-7.8 2.5-9.2 6.2-.6-.1-1.1-.1-1.7-.1-4.1 0-7.9 1.6-10.7 4.5C8.5 48.8 7 52.4 7 56.2v.2c.1 4.1 1.7 7.8 4.6 10.5 2.7 2.7 6.4 4.2 10.3 4.2h55.7c7.9 0 14.4-6.4 14.4-14.3 0-6.6-4.5-12.3-10.7-13.9Z" clip-rule="evenodd" opacity=".6" style="mix-blend-mode:multiply"/>
    <g filter="url(#c)" opacity=".3" style="mix-blend-mode:multiply">
      <path fill="#B6B6B6" d="M29.5 64c1.787 0 24.848-1.272 26.48-2 2.23-.994-2.39-6.972 0-7.47 1.08-.224 2.667-.927 2.667-.927s4.352-1.602 5.103-1.602c.75 0 .374-2.964.14-4.81l-.14-1.32c0-.87-2.592-2.674-3-4.87-.284-1.527.424-3.585.276-3.968 0 0-.05-.029-.036-.032.014-.004.026.007.036.032.112.053.922.327.922.327 1.948.66 5.03 1.74 7.802 3.64 1.658 1.138 3.941 3.314 3.941 3.314s1.645 1.272 2.059 1.687c1 1 4 4 6 4h5L89 51.59l.5 3.21c0 7.9-6.5 14.3-14.4 14.3H18.5S23 64 29.5 64Z"/>
    </g>
    <path fill="#00B8F1" d="M40.7 90.5h-2.8l1.4-2.5c.4-.6.2-1.5-.5-1.8-.7-.4-1.5-.2-1.9.5l-1.4 2.4-1.4-2.4c-.4-.7-1.2-.9-1.8-.5-.4.2-.6.5-.7.8-.1.3 0 .7.1 1l1.4 2.4h-2.7c-.8.1-1.4.7-1.4 1.4s.6 1.4 1.4 1.4h2.8l-1.4 2.4c-.2.3-.2.7-.1 1 .1.3.3.6.6.8.6.4 1.5.1 1.8-.5l1.4-2.4 1.4 2.5c.2.4.7.7 1.2.7.2 0 .5-.1.7-.2.6-.4.9-1.2.5-1.8l-1.4-2.5h2.8c.7 0 1.4-.6 1.4-1.4 0-.8-.7-1.3-1.4-1.3Z"/>
    <path fill="#006EDB" d="M63.5 91c-.3 0-.7-.1-1-.2-1.3-.6-1.8-2-1.3-3.3l3.5-8c.6-1.3 2-1.8 3.3-1.3 1.3.6 1.8 2 1.3 3.3l-3.5 8c-.4 1-1.3 1.5-2.3 1.5Z"/>
  </g>
  <defs>
    <linearGradient id="b" x1="47.5" x2="49.5" y1="38.5" y2="71.1" gradientUnits="userSpaceOnUse">
      <stop offset=".484" stop-color="#fff" stop-opacity="0"/>
      <stop offset="1" stop-color="#B3B2B2"/>
    </linearGradient>
    <clipPath id="a">
      <path fill="#fff" d="M0 0h100v100H0z"/>
    </clipPath>
    <filter id="c" width="85" height="46.101" x="11.5" y="30" color-interpolation-filters="sRGB" filterUnits="userSpaceOnUse">
      <feFlood flood-opacity="0" result="BackgroundImageFix"/>
      <feBlend in="SourceGraphic" in2="BackgroundImageFix" result="shape"/>
      <feGaussianBlur result="effect1_foregroundBlur_149_1458" stdDeviation="3.5"/>
    </filter>
  </defs>
</svg>

<svg width="100" height="100" viewBox="0 0 100 100" fill="none" xmlns="http://www.w3.org/2000/svg">
<g clip-path="url(#clip0_149_1458)">
<path fill-rule="evenodd" clip-rule="evenodd" d="M81.3 42.9C79.4 31.6 69.4 23 57.7 23C48.6 23 40.4 28.1 36.4 36.1C35.2 35.6 34 35.4 32.8 35.4C28.6 35.4 25 37.9 23.6 41.6C23 41.5 22.5 41.5 21.9 41.5C17.8 41.5 14 43.1 11.2 46C8.5 48.8 7 52.4 7 56.2V56.4C7.1 60.5 8.7 64.2 11.6 66.9C14.3 69.6 18 71.1 21.9 71.1H77.6C85.5 71.1 92 64.7 92 56.8C92 50.2 87.5 44.5 81.3 42.9Z" fill="#CCCCCC"/>
<g opacity="0.6">
<path fill-rule="evenodd" clip-rule="evenodd" d="M81.3 42.9C79.4 31.6 69.4 23 57.7 23C48.6 23 40.4 28.1 36.4 36.1C35.2 35.6 34 35.4 32.8 35.4C28.6 35.4 25 37.9 23.6 41.6C23 41.5 22.5 41.5 21.9 41.5C17.8 41.5 14 43.1 11.2 46C8.5 48.8 7 52.4 7 56.2V56.4C7.1 60.5 8.7 64.2 11.6 66.9C14.3 69.6 18 71.1 21.9 71.1H77.6C85.5 71.1 92 64.7 92 56.8C92 50.2 87.5 44.5 81.3 42.9Z" fill="url(#paint0_linear_149_1458)" style="mix-blend-mode:multiply"/>
</g>
<path d="M40.7 90.5H37.9L39.3 88C39.7 87.4 39.5 86.5 38.8 86.2C38.1 85.8 37.3 86 36.9 86.7L35.5 89.1L34.1 86.7C33.7 86 32.9 85.8 32.3 86.2C31.9 86.4 31.7 86.7 31.6 87C31.5 87.3 31.6 87.7 31.7 88L33.1 90.4H30.4C29.6 90.5 29 91.1 29 91.8C29 92.5 29.6 93.2 30.4 93.2H33.2L31.8 95.6C31.6 95.9 31.6 96.3 31.7 96.6C31.8 96.9 32 97.2 32.3 97.4C32.9 97.8 33.8 97.5 34.1 96.9L35.5 94.5L36.9 97C37.1 97.4 37.6 97.7 38.1 97.7C38.3 97.7 38.6 97.6 38.8 97.5C39.4 97.1 39.7 96.3 39.3 95.7L37.9 93.2H40.7C41.4 93.2 42.1 92.6 42.1 91.8C42.1 91 41.4 90.5 40.7 90.5Z" fill="#00B8F1"/>
<path d="M63.5 91C63.2 91 62.8 90.9 62.5 90.8C61.2 90.2 60.7 88.8 61.2 87.5L64.7 79.5C65.3 78.2 66.7 77.7 68 78.2C69.3 78.8 69.8 80.2 69.3 81.5L65.8 89.5C65.4 90.5 64.5 91 63.5 91Z" fill="#006EDB"/>
</g>
<defs>
<linearGradient id="paint0_linear_149_1458" x1="47.5" y1="38.5" x2="49.5" y2="71.1" gradientUnits="userSpaceOnUse">
<stop offset="0.484375" stop-color="white" stop-opacity="0"/>
<stop offset="1" stop-color="#B3B2B2"/>
</linearGradient>
<clipPath id="clip0_149_1458">
<rect width="100" height="100" fill="white"/>
</clipPath>
</defs>
</svg>
